icons/mini/currency-dollar.svg

<svg width="20" height="20" viewBox="0 0 20 20" fill="none" xmlns="http://www.w3.org/2000/svg">
<path d="M10.7499 10.8176V13.4324C11.1816 13.3527 11.5745 13.2046 11.8876 12.9999C12.3698 12.6846 12.4999 12.352 12.4999 12.125C12.4999 11.898 12.3698 11.5654 11.8876 11.2501C11.5745 11.0454 11.1816 10.8973 10.7499 10.8176Z" fill="#0F172A"/>
<path d="M8.32961 8.61947C8.38337 8.67543 8.44464 8.73053 8.51404 8.78416C8.72197 8.94484 8.97355 9.06777 9.25 9.1469V6.60315C9.17545 6.62449 9.10271 6.64901 9.03215 6.6766C8.98721 6.69417 8.94315 6.71299 8.90007 6.73302C8.75996 6.79816 8.63019 6.87614 8.51404 6.96589C8.13658 7.25757 8 7.59253 8 7.87503C8 8.05887 8.05784 8.26493 8.20228 8.46683C8.23898 8.51812 8.28126 8.56915 8.32961 8.61947Z" fill="#0F172A"/>
<path fill-rule="evenodd" clip-rule="evenodd" d="M18 10C18 14.4183 14.4183 18 10 18C5.58172 18 2 14.4183 2 10C2 5.58172 5.58172 2 10 2C14.4183 2 18 5.58172 18 10ZM9.99994 4C10.4142 4 10.7499 4.33579 10.7499 4.75V5.06584C11.3423 5.17106 11.9182 5.40427 12.4031 5.77893C12.8293 6.10829 13.1467 6.51836 13.3282 6.97896C13.4801 7.36432 13.2908 7.79985 12.9055 7.95174C12.5201 8.10363 12.0846 7.91437 11.9327 7.52901C11.8599 7.34437 11.72 7.14675 11.4859 6.96586C11.278 6.80519 11.0264 6.68225 10.7499 6.60312V9.29944C11.448 9.39233 12.1327 9.61819 12.7085 9.99467C13.4955 10.5093 13.9999 11.2644 13.9999 12.125C13.9999 12.9856 13.4955 13.7407 12.7085 14.2553C12.1327 14.6318 11.448 14.8577 10.7499 14.9506V15.25C10.7499 15.6642 10.4142 16 9.99994 16C9.58573 16 9.24994 15.6642 9.24994 15.25V14.9506C8.55186 14.8577 7.8672 14.6318 7.29141 14.2553C6.80887 13.9398 6.4337 13.5376 6.21337 13.0672C6.0377 12.692 6.19937 12.2455 6.57449 12.0699C6.9496 11.8942 7.39611 12.0559 7.57178 12.431C7.65258 12.6035 7.81692 12.8067 8.11229 12.9999C8.42537 13.2046 8.8183 13.3526 9.24994 13.4324V10.6842C8.65762 10.5789 8.08167 10.3457 7.59681 9.97107C6.90033 9.43288 6.49994 8.68017 6.49994 7.875C6.49994 7.06983 6.90034 6.31712 7.59681 5.77893C8.08167 5.40427 8.65762 5.17106 9.24994 5.06584V4.75C9.24994 4.33579 9.58573 4 9.99994 4Z" fill="#0F172A"/>
</svg>

<svg xmlns="http://www.w3.org/2000/svg" viewBox="0 0 20 20" fill="currentColor" aria-hidden="true" data-slot="icon">
  <path d="M10.75 10.818v2.614A3.13 3.13 0 0 0 11.888 13c.482-.315.612-.648.612-.875 0-.227-.13-.56-.612-.875a3.13 3.13 0 0 0-1.138-.432ZM8.33 8.62c.053.055.115.11.184.164.208.16.46.284.736.363V6.603a2.45 2.45 0 0 0-.35.13c-.14.065-.27.143-.386.233-.377.292-.514.627-.514.909 0 .184.058.39.202.592.037.051.08.102.128.152Z"/>
  <path fill-rule="evenodd" d="M18 10a8 8 0 1 1-16 0 8 8 0 0 1 16 0Zm-8-6a.75.75 0 0 1 .75.75v.316a3.78 3.78 0 0 1 1.653.713c.426.33.744.74.925 1.2a.75.75 0 0 1-1.395.55 1.35 1.35 0 0 0-.447-.563 2.187 2.187 0 0 0-.736-.363V9.3c.698.093 1.383.32 1.959.696.787.514 1.29 1.27 1.29 2.13 0 .86-.504 1.616-1.29 2.13-.576.377-1.261.603-1.96.696v.299a.75.75 0 1 1-1.5 0v-.3c-.697-.092-1.382-.318-1.958-.695-.482-.315-.857-.717-1.078-1.188a.75.75 0 1 1 1.359-.636c.08.173.245.376.54.569.313.205.706.353 1.138.432v-2.748a3.782 3.782 0 0 1-1.653-.713C6.9 9.433 6.5 8.681 6.5 7.875c0-.805.4-1.558 1.097-2.096a3.78 3.78 0 0 1 1.653-.713V4.75A.75.75 0 0 1 10 4Z" clip-rule="evenodd"/>
</svg>
